packages/katcn/src/icons/svg/puzzle-solid.svg

<svg width="24" height="24" viewBox="0 0 24 24" fill="none" xmlns="http://www.w3.org/2000/svg">
<path d="M19.6306 10.5135H19.1351V8.53153C19.1351 6.35135 17.3514 4.56757 15.1712 4.56757H13.1892V4.17117C13.1892 2.38739 11.8018 1 10.018 1C8.23423 1 6.84685 2.38739 6.84685 4.17117V4.66667H4.96396C2.78378 4.66667 1 6.45045 1 8.63063V11.6036C1 12.1982 1.3964 12.5946 1.99099 12.5946H3.47748C3.77477 12.5946 4.07207 12.6937 4.36937 12.991C4.66667 13.2883 4.76577 13.5856 4.76577 13.982C4.76577 14.5766 4.17117 15.0721 3.47748 15.0721H1.99099C1.3964 15.0721 1 15.4685 1 16.0631V19.036C1 21.2162 2.78378 23 4.96396 23H7.93694C8.53153 23 8.92793 22.6036 8.92793 22.009V20.5225C8.92793 20.2252 9.02703 19.9279 9.32432 19.6306C9.62162 19.3333 9.91892 19.2342 10.3153 19.2342C10.9099 19.2342 11.4054 19.8288 11.4054 20.5225V21.8108C11.4054 22.4054 11.8018 22.8018 12.3964 22.8018H15.3694C17.5495 22.8018 19.3333 21.018 19.3333 18.8378V16.8559H19.8288C21.6126 16.8559 23 15.4685 23 13.6847C22.8018 12 21.4144 10.5135 19.6306 10.5135Z" fill="black"/>
</svg>

<svg xmlns="http://www.w3.org/2000/svg" fill="none" viewBox="0 0 24 24"><path fill="#000" d="M19.63 10.514h-.495V8.532a3.976 3.976 0 0 0-3.964-3.964H13.19V4.17c0-1.783-1.388-3.17-3.172-3.17S6.847 2.387 6.847 4.171v.496H4.964A3.976 3.976 0 0 0 1 8.63v2.973c0 .594.396.99.991.99h1.486c.298 0 .595.1.892.397s.397.595.397.991c0 .595-.595 1.09-1.289 1.09H1.991c-.595 0-.991.397-.991.991v2.973A3.976 3.976 0 0 0 4.964 23h2.973c.595 0 .99-.396.99-.991v-1.486c0-.298.1-.595.397-.892s.595-.397.991-.397c.595 0 1.09.595 1.09 1.288v1.289c0 .594.397.99.991.99h2.973a3.976 3.976 0 0 0 3.964-3.963v-1.982h.496c1.784 0 3.171-1.388 3.171-3.171-.198-1.685-1.586-3.171-3.37-3.171"/></svg>
